X:25
T:Crested Hen, The
R:Waltz
M:3/4
L:1/8
K:D
|:E3 G FE|B4 Bc|dc Be dc|dc BA GF|E3 G FE|B4  Bc|dc BA GA|1B3 G FD:|2B4
ef|:gB Bg gB|=c4 ef|gf ag fe|^d2 e2 f2|gB Bg gB|=c4 ef|gf ag fd:|1B4 ef:
|e4
||
